!!!OTL: Uyadela
!!!XEN: You Are Arrogant
!!!CNT: African -- sub-Saharan -- Zulu
**kern
*k[]
*M4/4
*MM144
8cc
8cc
=1
2.cc
8b-
8a
=2
8g
8f
8e
8c
4r
8cc
8cc
=3
8bn
8g
8g
[8g
8g]
8a
8f
8e
=4
4g
8f
8e
4c
!! Repeat from the beginning.
8cc
8cc
=5
2.cc
8b-
8a
=6
8g
8f
8e
8c
4r
8cc
8cc
=7
8bn
8g
8g
[8g
8g]
8a
8f
8e
=8
4g
8f
8e
4c
!! Continuing
8c
8c
=9
(16c
16f)
8f
8f
8g
8a
8g
8f
8f
=10
8e
8c
2c
8e
8e
=11
8d
8d
8d
8e
8f
8B
4d
=12
8c
8c
4r
4r
!! Repeating.
8c
8c
=13
(16c
16f)
8f
8f
8g
8a
8g
8f
8f
=14
8e
8c
2c
8e
8e
=15
8d
8d
8d
8e
8f
8B
4d
=16
8c
8c
4r
4r
==
*-
!!!OPR: Miriam Makeba, "The World of African Song"
!!!PPP: Chicago
!!!PPR: Quadrangle Press (12 East Delaware Place)
!!!PDT: 1971///
!!!PPG: 89
!!!ENC: David Huron
!!!EMD: 1998/9/29/ Paul von Hippel updated this file in the following ways:
!!!EMD:  (1) changed the representation of slurs from curly braces to parentheses 
!!!EMD:  (2) changed freeform comments into reference records and tandem interpretations
!!!EMD:  (3) changed final barline from triple (===) to double (==)
!!!EMD:  (4) added key signature from printed source
!!!EEV: Version 2.0
